X:768
T:The pet of the pipers
T:Doherty's fancy
R:Jig
O:Ireland
B:O'Neill's 811
B:Kerr's First p36
S:Kerr's First p36
Z:Transcription, minor arr., chords:Mike Long
M:6/8
L:1/8
K:A
E|\
"A"A3 cBA|ecA aec|A3 cBA|"E"GFE dcB|\
"A"A3 cBA|ecA aec|"D"fga "A"ecA|"E"dBG "A"A2:|
|:e|\
"A"aga fga|"E"gba gfe|"A"aga fga|"E"bag "A"a2 (3(e/f/g/)|\
"A"agf edc|"D"fed "A"cBA|"D"fga "A"ecA|"E"dBG "A"A2:|
